X:1
T:Awake my soul, awake mine eyes
T:Awake my soul, awake mine eyes - Ivybridge (Thomas Clark)
C:Thomas Clark
Z:p9, A Second Set of Psalm
Z:and Hymn Tunes,
Z:London: (1806)
%%score [ 1 2 3 4 ]
L:1/8
M:3/4
K:D
V:1 treble nm="SOPRANO" snm="S."
V:2 treble nm="ALTO" snm="A."
V:3 treble-8 transpose=-12 nm="TENOR" snm="T."
V:4 bass nm="BASS" snm="B."
V:1
"^Spiritoso" A2 | d4 c2 | d4 A2 | F4 D2 | A4 A2 | (d>c B2) (e>d) | (c>B A2) d2 | (e2 d2) c2 | d4 |: %9
w: A-|rise, my|soul, and|thou, my|voice In|songs _ _ of _|praise _ _ ear-|ly _ re-|joice:|
w: A-|wake my|soul, a-|wake mine|eyes, A-|wake _ _ my _|drow- * * sy|fa- * cul-|ties:|
w: Look|up and|see th’un-|wea- ried|sun Al-|rea- * * dy _|has _ _ his|race _ be-|gun:|
 A2 | (A>G F2) G2 | A4 A2 | (d>e f2) (ed) | (d2 c2) z2 |!p! d2 (cB) (AG) | (F3 G) A2 | (B2 A2) G2 | %17
w: O|great _ _ Cre-|a- tor,|heav'n- * * ly _|King, _|Thy prai- * ses _|let _ me|ev- * er|
w: A-|wake _ _ and|see the|new- * * born _|light, _|Sprung from _ the _|dark- * some|womb _ of|
w: The|pret- * * ty|lark is|mount- * * ed _|high, _|And sings _ her _|ma- * tins|in _ the|
 (G2 F2) z2 |!f! f2 (ed) (cB) | (A3 G) F2 | (G2 F2) E2 | D4 :| %22
w: sing, _|thy prai- * ses _|let _ me|ev- * er|sing.|
w: night, _|sprung from _ the _|dark- * some|womb _ of|night.|
w: sky, _|and sings _ her _|ma- * tins|in _ the|sky.|
V:2
 D2 | D4 E2 | F4 A2 | F4 D2 | A4 E2 | (F>E D2) E2 | E4 (FA) | (G2 F2) E2 | F4 |: E2 | D4 C2 | %11
w: A-|rise, my|soul, and|thou, my|voice In|songs _ _ of|praise ear- *|ly _ re-|joice:|O|great Cre-|
w: A-|wake my|soul, a-|wake mine|eyes, A-|wake _ _ my|drow- sy _|fa- * cul-|ties:|A-|wake and|
w: Look|up and|see th’un-|wea- ried|sun Al-|rea- * * dy|has his _|race _ be-|gun:|The|pret- ty|
 D4 E2 | (F>G A2) (GF) | (F2 E2) z2 | z6 | z6 | z6 |"^["!f!"^]" z6 | A2 A2 D2 | D4 D2 | D4 C2 | %21
w: a- tor,|heav'n- * * ly _|King, _|||||Thy prai- ses|let me|ev- er|
w: see the|new- * * born _|light, _|||||Sprung from the|dark- some|womb of|
w: lark is|mount- * * ed _|high, _|||||And sings her|ma- tins|in the|
 D4 :| %22
w: sing.|
w: night.|
w: sky.|
V:3
 F2 | A4 A2 | A4 A2 | F4 D2 | A4 A2 | d4 ^G2 | (A>B c2) d2 | (B2 A2) A2 | A4 |: A2 | (F>G A2) G2 | %11
w: A-|rise, my|soul, and|thou, my|voice In|songs of|praise _ _ ear-|ly _ re-|joice:|O|great _ _ Cre-|
w: A-|wake my|soul, a-|wake mine|eyes, A-|wake my|drow- * * sy|fa- * cul-|ties:|A-|wake _ _ and|
w: Look|up and|see th’un-|wea- ried|sun Al-|rea- dy|has _ _ his|race _ be-|gun:|The|pret- * * ty|
 F4 c2 | d4 B2 | A4 z2 | z6 | z6 | z6 |!f! z6 | d2 A2 G2 | A4 A2 | (B2 A2) G2 | F4 :| %22
w: a- tor,|heav'n- ly|King,|||||Thy prai- ses|let me|ev- * er|sing.|
w: see the|new- born|light,|||||Sprung from the|dark- some|womb _ of|night.|
w: lark is|mount- ed|high,|||||And sings her|ma- tins|in _ the|sky.|
V:4
"^Notes: The order of parts in the source is Tenor - [Alto] - Air - [Bass], with both the Tenor and Alto parts printed in thetreble clef an octave above sounding pitch. Only the first verse of the text is underlaid in the source: the other verses have been added editorially, and the figuring of the vocal bass part in the source has been omitted to facilitate this.The following notes are printed in the source as small crotchet grace notes (slurred to the subsequent notes whichare printed as minims) and have been written out editorially: bar 13, beat 1, soprano D and alto F#; bar 17, beat 1,soprano G." D,2 | %1
w: A-|
w: A-|
w: Look|
 F,4 A,2 | D4 A,2 | F,4 D,2 | A,4 G,2 | (F,2 G,2) E,2 | (A,2 G,2) F,2 | (G,2 A,2) A,,2 | D,4 |: %9
w: rise, my|soul, and|thou, my|voice In|songs _ of|praise _ ear-|ly _ re-|joice:|
w: wake my|soul, a-|wake mine|eyes, A-|wake _ my|drow- * sy|fa- * cul-|ties:|
w: up and|see th’un-|wea- ried|sun Al-|rea- * dy|has _ his|race _ be-|gun:|
 C,2 | D,4 E,2 | (F,2 D2) C2 | (B,2 F,2) G,2 | A,4 z2 |"^["!p!"^]" D2 (A,G,) (F,E,) | %15
w: O|great Cre-|a- * tor,|heav'n- * ly|King,|Thy prai- * ses _|
w: A-|wake and|see _ the|new- * born|light,|Sprung from _ the _|
w: The|pret- ty|lark _ is|mount- * ed|high,|And sings _ her _|
 (D,3 E,) F,2 | (G,2 F,2) E,2 | D,4"^["!f!"^]" z2 | D,2 F,2 G,2 | (F,3 E,) D,2 | (G,2 A,2) A,,2 | %21
w: let _ me|ev- * er|sing,|thy prai- ses|let _ me|ev- * er|
w: dark- * some|womb _ of|night,|sprung from the|dark- * some|womb _ of|
w: ma- * tins|in _ the|sky,|and sings her|ma- * tins|in _ the|
 D,4 :| %22
w: sing.|
w: night.|
w: sky.|

